X: 151
T: Da qiuqian
L: 1/8
M: 2/4
K: Bb
z b b3/ d/ [I:setbarnb 1]| 
f gb2 | 
b> c' d' d'/ c'/ | 
d'> c' g b- | 
b d' b d' | 
b d'/ c'/b2 | 
d> f g f | 
d4 | 
f> gb2 | 
b> c' d' d' | 
d'> c'b2 | 
d'> f' a g | 
f g/ f/d2 | 
b b g/ b/ g/ f/ | 
d' g/ f/d2 | 
b b/ g/ b b | 
d> fd2 | 
b> c' d' d' | 
c' d'/ c'/b2 | 
d' bd'2 | 
f g/ g/ f g/ g/ | 
f ff2 |]

@@@ Tune index: 9025
